X: 27756
T: Morning Star, The
R: reel
M: 4/4
K: Fmajor
GA A/A/A AFDE|F2A/B/c dcfd|cA A/A/A cFDE|FAGE FCFG|
AG G/G/G GcDE|F2A/B/c dcfd|cA A/A/A cFDE|FAGE- ECFG||
Acde f/f/f fg|ec c/c/c acgc|Acde fgag|fece cddc|
Acde f/f/f fg|ec c/c/c acgc|AccA ccde|effe fedc||

